X:1
T:The Mountains of Mourne
M:6/8
L:1/8
K:F
 C| C A3/2 A/2 AGF| GFF F2 D/2D/2| DCC CEG| GFF F2 C| C A3/2 A/2 AGF|\
 GFF F2 D/2D/2| DCC CEG| GFF F2 C| C B3/2 B/2 BcB| BAG A2 A/2F/2| CFA cBA|\
 AG^F G2 C/2C/2| C A3/2 A/2 AGF| GFE F2 F/2D/2| DCCC-D E| GFF F2||\
